raw/symbols/cny.svg

<svg width="42" height="42" viewBox="0 0 42 42" fill="none" xmlns="http://www.w3.org/2000/svg">
<mask id="mask0_3145_261482" style="mask-type:alpha" maskUnits="userSpaceOnUse" x="0" y="0" width="42" height="42">
<circle cx="21" cy="21" r="21" fill="#D9D9D9"/>
</mask>
<g mask="url(#mask0_3145_261482)">
<path d="M63 0H0V42H63V0Z" fill="#EE1C25"/>
<path d="M10.4985 4.2041L14.2015 15.6009L4.50684 8.55729H16.4902L6.79545 15.6009L10.4985 4.2041Z" fill="#FFFF00"/>
<path d="M21.8228 2.2581L21.4722 6.23712L19.417 2.81192L23.093 4.37499L19.2003 5.27108L21.8228 2.2581Z" fill="#FFFF00"/>
<path d="M26.7075 6.92962L24.8403 10.4607L24.2754 6.50646L27.0567 9.37351L23.1213 8.68881L26.7075 6.92962Z" fill="#FFFF00"/>
<path d="M27.1707 13.9757L24.0254 16.4379L25.1228 12.5972L26.4925 16.3494L23.1788 14.1189L27.1707 13.9757Z" fill="#FFFF00"/>
<path d="M21.7409 16.9263L21.5555 20.9165L19.3601 17.5794L23.0977 18.9887L19.2455 20.0455L21.7409 16.9263Z" fill="#FFFF00"/>
</g>
</svg>

<svg xmlns="http://www.w3.org/2000/svg" width="42" height="42" fill="none"><mask id="a" width="42" height="42" x="0" y="0" maskUnits="userSpaceOnUse" style="mask-type:alpha"><circle cx="21" cy="21" r="21" fill="#D9D9D9"/></mask><g mask="url(#a)"><path fill="#EE1C25" d="M63 0H0v42h63V0Z"/><path fill="#FF0" d="m10.498 4.204 3.704 11.397-9.695-7.044H16.49l-9.695 7.044L10.5 4.204ZM21.823 2.258l-.35 3.98-2.056-3.426 3.676 1.563-3.893.896 2.623-3.013ZM26.707 6.93l-1.867 3.53-.565-3.954 2.782 2.868-3.936-.685 3.587-1.76ZM27.17 13.976l-3.145 2.462 1.098-3.84 1.37 3.751-3.314-2.23 3.992-.143ZM21.74 16.926l-.184 3.99-2.196-3.337 3.738 1.41-3.852 1.056 2.495-3.119Z"/></g></svg>
